X:1
T:092 - Substituição
T:Letra: Frances Ridley Havergal (1836-1879)
T:Trad.: D. M. Hazlett (1852 - ?)
T:Música: Philip Paul Bliss (1838-1876)
M:6/8
L:1/8
Q:1/4=80
K:C
V:1
G| "C"G2G E2G| ("F"A3 cB)A| "C/G"G2G "G7"F2G | "C"E3z2G| G2G E2G| ("F"A3 cB)A| "C/G"G2G "G7"BAB| "C"c3z2 || c| "G7"d2d (dc)B| "C"c2c G2c| "G7"B2B (BA)B| "C"c3z2c| "G7"d2d (dc)B| "C"c2c G2c| "G7"B2B (BA)B| "C"c3-c2 |]
w: 1.~Mor-ri na cruz por ti,__ Mor-ri pra te li-vrar; Meu san-gue, sim, ver-ti,__ E pos-so te_ sal-var. Mor-ri, mor-ri_ na cruz por ti;    Que fa-zes tu_ por Mim? Mor-ri, mor-ri_ na cruz por ti;    Que fa-zes tu_ por Mim?_
w: 2.~A-qui vi-vi por ti,__ Com mui-to dis-sa-bor; Sim, tu-do fiz a-qui,__ Pra ser teu Sal_va-dor.
w: 3.~So-fri na cruz por ti,__ A fim de te sal-var; A vi-da con-se-gui,__ Que tu i-rás_ go-zar.
w: 4.~Eu trou-xe sal-va-ção,__ Dos al-tos céus, fa-vor; É li-vre meu per-dão;__ Sin-ce-ro, meu_ a-mor.
W: 
W:
W: 1. Morri na cruz por ti,
W: Morri pra te livrar;
W: Meu sangue, sim, verti,
W: E posso te salvar.
W: 
W:    (Estribilho)
W:    Morri, morri na cruz por ti;
W:    Que fazes tu por Mim?
W:    Morri, morri na cruz por ti;
W:    Que fazes tu por Mim?
W: 
W: 2. Aqui vivi por ti,
W: Com muito dissabor;
W: Sim, tudo fiz aqui,
W: Pra ser teu Salvador.
W: 
W:
W:
W: 3. Sofri na cruz por ti,
W: A fim de te salvar;
W: A vida consegui,
W: Que tu irás gozar.
W: 
W: 4. Eu trouxe salvação,
W: Dos altos céus, favor;
W: É livre meu perdão;
W: Sincero, meu amor.
W: 
W: 





%wordsfont Times-Roman 13.0
%vocalfont Times-Roman 13.0
